X:1
T:Who Has the Conn
M:4/4
L:1/8
Q:1/4=120
K:Em clef=treble
[Q:1/4=120]c2 BA cA eA |BA dD B2 AG |E2 DE GA BG, |B,1/2A,1/2G, CB, A,2 >B2 |c2 BA cA eA |BA dD B2 AG |E2 DE GA BG,|B,1/2A,1/2G, CB, A,2 >^D2 |ED CB, A,C E^G |A2 GF ED CD |ED CB, A,C EA |AG FE DA, CD |ED CB, A,C E^G |A2 BA cA EA |Fd AF dA FD |=Fd AF d2 D^D |c2 BA cA eA |BA dD B2 AG |E2 DE GA BG, |B,1/2A,1/2G, CB, A,2 >B2 |c2 BA cA eA |BA dD B2 AG |E2 DE GA BG, |B,1/2A,1/2G, CB, A,2 >^D2 |ED CB, A,C E^G |A2 GF ED CD |ED CB, A,C EA |AG FE DA, CD |ED CB, A,C E^G |A2 BA cA EA |Fd AF dA FD |=Fd AF d2 >B2 |

composer: Liz Carroll
